remix/Device/dashboard-3-fill.svg

<svg viewBox="0 0 24 24" fill="currentColor" xmlns="http://www.w3.org/2000/svg"><path d="M12 2C17.5228 2 22 6.47715 22 12C22 17.5228 17.5228 22 12 22C6.47715 22 2 17.5228 2 12C2 6.47715 6.47715 2 12 2ZM16.5962 7.40381C16.3916 7.19926 16.0697 7.17128 15.8329 7.33748C12.9438 9.36549 11.3126 10.5661 10.9393 10.9393C10.3536 11.5251 10.3536 12.4749 10.9393 13.0607C11.5251 13.6464 12.4749 13.6464 13.0607 13.0607C13.2796 12.8417 14.479 11.2095 16.6587 8.16418C16.8267 7.92955 16.8002 7.60784 16.5962 7.40381ZM17.5 11C16.9477 11 16.5 11.4477 16.5 12C16.5 12.5523 16.9477 13 17.5 13C18.0523 13 18.5 12.5523 18.5 12C18.5 11.4477 18.0523 11 17.5 11ZM6.5 11C5.94772 11 5.5 11.4477 5.5 12C5.5 12.5523 5.94772 13 6.5 13C7.05228 13 7.5 12.5523 7.5 12C7.5 11.4477 7.05228 11 6.5 11ZM8.81802 7.40381C8.4275 7.01328 7.79433 7.01328 7.40381 7.40381C7.01328 7.79433 7.01328 8.4275 7.40381 8.81802C7.79433 9.20854 8.4275 9.20854 8.81802 8.81802C9.20854 8.4275 9.20854 7.79433 8.81802 7.40381ZM12 5.5C11.4477 5.5 11 5.94772 11 6.5C11 7.05228 11.4477 7.5 12 7.5C12.5523 7.5 13 7.05228 13 6.5C13 5.94772 12.5523 5.5 12 5.5Z"/></svg>

<svg viewBox="0 0 24 24" xmlns="http://www.w3.org/2000/svg"><path fill="none" d="M0 0h24v24H0Z"/><path d="M12 2c5.523 0 10 4.477 10 10s-4.477 10-10 10C6.477 22 2 17.523 2 12 2 6.477 6.477 2 12 2Zm4.596 5.404c-.21-.21-.53-.24-.77-.07 -2.89 2.02-4.52 3.23-4.894 3.6 -.59.58-.59 1.53 0 2.122 .58.58 1.53.58 2.122 0 .21-.22 1.41-1.86 3.59-4.9 .16-.24.14-.556-.07-.76Zm.9 3.596c-.56 0-1 .44-1 1 0 .55.44 1 1 1 .55 0 1-.45 1-1 0-.56-.45-1-1-1Zm-11 0c-.56 0-1 .44-1 1 0 .55.44 1 1 1 .55 0 1-.45 1-1 0-.56-.45-1-1-1Zm2.31-3.596c-.39-.39-1.024-.39-1.42 0 -.39.39-.39 1.02 0 1.41 .39.39 1.02.39 1.41 0 .39-.39.39-1.024 0-1.42ZM11.98 5.5c-.56 0-1 .44-1 1 0 .55.44 1 1 1 .55 0 1-.45 1-1 0-.56-.45-1-1-1Z"/></svg>
